assets/svg/lobehub.svg

<svg width="50" height="50" viewBox="0 0 50 50" fill="none" xmlns="http://www.w3.org/2000/svg">
<path d="M50 28.0723C50 40.9831 38.9094 50 24.9989 50C11.0929 50 0 40.8123 0 27.9015C0 24.0618 0.933898 22.4159 5.87673 21.8138C14.7374 20.7346 19.4114 21.1617 25.0011 21.1617C30.5886 21.1617 38.5358 20.9451 44.1233 21.8138C48.6948 22.5264 49.7198 23.293 50 28.0723Z" fill="#FFB02E"/>
<path d="M24.9533 40.0185C19.6825 40.0185 18.2839 40.6143 18.2839 40.6143C18.2839 40.6143 18.9376 45.2228 24.9533 45.2228C30.9713 45.2228 31.6227 40.6143 31.6227 40.6143C31.6227 40.6143 30.2241 40.0185 24.9533 40.0185Z" fill="#972021"/>
<path d="M45.8977 23.9785C45.8977 25.0618 36.5815 25.9389 25.0945 25.9389C13.6053 25.9389 4.29138 25.0598 4.29138 23.9764C4.29138 22.893 13.6053 22.0138 25.0945 22.0138C36.5815 22.0138 45.8954 22.893 45.8954 23.9764L45.8977 23.9785Z" fill="#FF6723"/>
<path d="M20.4296 25.9389C20.548 23.3847 20.3385 22.0493 19.4046 19.72C19.4046 19.72 21.1744 17.6637 24.4385 17.6637C27.7049 17.6637 30.0374 18.1846 30.0374 18.1846C29.4725 21.0513 29.4451 22.7805 29.5704 25.9389H20.4319H20.4296Z" fill="#FEE064"/>
<path d="M17.3865 38.6143C20.1358 37.4059 22.0149 34.9433 22.0149 31.912C22.0149 27.5765 18.1723 23.7201 13.4322 23.7201C8.69437 23.7201 4.66266 27.064 4.66266 31.3995C4.66266 33.7871 5.88584 35.9746 7.77186 37.4622C8.95565 37.0582 10.2098 36.8542 11.4733 36.8601C13.8422 36.8601 15.9651 37.5413 17.3865 38.6143ZM32.6135 38.6143C29.8642 37.4059 27.9851 34.9433 27.9851 31.912C27.9851 27.5765 31.8277 23.7201 36.5678 23.7201C41.3056 23.7201 45.3373 27.064 45.3373 31.3995C45.3373 33.7871 44.1142 35.9746 42.2281 37.4622C41.0444 37.0582 39.7902 36.8542 38.5267 36.8601C36.1578 36.8601 34.0349 37.5413 32.6135 38.6143Z" fill="white"/>
<path d="M13.9925 36.3476C15.3778 36.3476 16.7062 35.8442 17.6857 34.9483C18.6652 34.0524 19.2155 32.8373 19.2155 31.5703C19.2155 30.3034 18.6652 29.0882 17.6857 28.1923C16.7062 27.2964 15.3778 26.7931 13.9925 26.7931C12.6073 26.7931 11.2788 27.2964 10.2993 28.1923C9.31981 29.0882 8.76953 30.3034 8.76953 31.5703C8.76953 32.8373 9.31981 34.0524 10.2993 34.9483C11.2788 35.8442 12.6073 36.3476 13.9925 36.3476ZM36.0075 36.3476C34.6222 36.3476 33.2938 35.8442 32.3143 34.9483C31.3348 34.0524 30.7845 32.8373 30.7845 31.5703C30.7845 30.3034 31.3348 29.0882 32.3143 28.1923C33.2938 27.2964 34.6222 26.7931 36.0075 26.7931C37.3927 26.7931 38.7212 27.2964 39.7007 28.1923C40.6802 29.0882 41.2305 30.3034 41.2305 31.5703C41.2305 32.8373 40.6802 34.0524 39.7007 34.9483C38.7212 35.8442 37.3927 36.3476 36.0075 36.3476Z" fill="#270C36"/>
<path d="M27.4247 1.87789C24.8075 1.87789 23.7871 -0.0846609 19.7759 0.00284142C15.4116 0.00284142 13.4322 2.21957 11.2865 3.92586C10.9221 4.21754 9.14082 5.12173 8.30259 5.46132C4.63077 6.95511 1.86552 9.13017 1.86552 12.374C1.86552 15.9074 5.12278 18.7721 9.14082 18.7721C9.80138 18.7721 10.4392 18.695 11.0496 18.5512C12.6714 20.3492 15.1861 21.393 18.0037 21.5034C22.3885 21.6742 23.7894 18.8992 26.3063 20.0513C28.0329 20.843 28.8871 21.5034 31.6227 21.5034C34.8162 21.5034 36.299 20.6076 37.2193 19.6263C38.9003 17.8346 41.4879 18.9429 43.096 18.9429C46.5992 18.9429 49.4397 16.4595 49.4397 13.3969C49.4397 10.3344 46.6015 7.85097 43.0983 7.85097C42.137 7.85097 40.3262 8.06764 39.9253 6.65718C39.2716 4.35296 36.1669 1.70705 31.7161 1.70705C29.9781 1.70705 28.4156 1.87789 27.4247 1.87789Z" fill="#A68AE2"/>
<path d="M10.635 2.13415C10.635 2.56431 10.4482 2.97685 10.1157 3.28102C9.78311 3.58519 9.33208 3.75607 8.86178 3.75607C8.39148 3.75607 7.94044 3.58519 7.60789 3.28102C7.27533 2.97685 7.08851 2.56431 7.08851 2.13415C7.08851 1.70399 7.27533 1.29145 7.60789 0.987279C7.94044 0.68311 8.39148 0.51223 8.86178 0.51223C9.33208 0.51223 9.78311 0.68311 10.1157 0.987279C10.4482 1.29145 10.635 1.70399 10.635 2.13415Z" fill="#7B61FF"/>
<path d="M8.39597 17.0658C8.39597 17.7899 8.08148 18.4844 7.52167 18.9964C6.96186 19.5084 6.2026 19.7961 5.41091 19.7961C4.61923 19.7961 3.85997 19.5084 3.30016 18.9964C2.74035 18.4844 2.42586 17.7899 2.42586 17.0658C2.42586 16.342 2.74023 15.6478 3.29983 15.1359C3.85942 14.6241 4.61839 14.3366 5.40978 14.3366C6.20116 14.3366 6.96013 14.6241 7.51973 15.1359C8.07932 15.6478 8.39597 16.342 8.39597 17.0658Z" fill="#F24630"/>
<path d="M47.7609 7.0822C47.7718 7.43577 47.705 7.78774 47.5646 8.11731C47.4241 8.44687 47.2129 8.74734 46.9433 9.00094C46.6737 9.25453 46.3512 9.45612 45.995 9.59377C45.6388 9.73142 45.256 9.80234 44.8693 9.80234C44.4825 9.80234 44.0997 9.73142 43.7435 9.59377C43.3873 9.45612 43.0648 9.25453 42.7952 9.00094C42.5256 8.74734 42.3144 8.44687 42.1739 8.11731C42.0335 7.78774 41.9667 7.43577 41.9776 7.0822C41.9776 6.38046 42.2824 5.70746 42.8249 5.21126C43.3674 4.71506 44.1032 4.43629 44.8704 4.43629C45.6376 4.43629 46.3734 4.71506 46.9159 5.21126C47.4584 5.70746 47.7609 6.38046 47.7609 7.0822Z" fill="#7CEE1D"/>
<path d="M19.8191 40.2914C20.8441 40.1497 22.4682 40.0185 24.9533 40.0185C27.2311 40.0185 28.7868 40.1289 29.8187 40.256C29.5294 41.256 27.3997 41.6394 24.8144 41.6394C22.2587 41.6394 20.1449 41.2644 19.8191 40.2914Z" fill="white"/>
<path d="M25.0011 48.1229C28.7504 48.1229 29.3495 44.6269 29.4656 43.7519C29.5545 43.0436 29.1536 42.6873 28.714 42.4456C28.2789 42.204 26.9646 41.979 25.0011 41.979C23.0377 41.979 21.7325 42.204 21.2883 42.4456C20.8419 42.6873 20.4387 43.0456 20.5367 43.7519C20.6528 44.6269 21.2519 48.1229 25.0011 48.1229Z" fill="#F24630"/>
<path d="M27.1833 20.7742C26.1127 20.1096 24.5797 20.0492 23.491 20.6846C21.9907 21.5572 20.2486 22.0184 18.4707 22.0138C13.4208 22.0138 9.32759 18.3846 9.32759 13.9095C9.32759 9.43226 13.4208 5.80508 18.4707 5.80508C21.0127 5.80508 23.3133 6.72177 24.9692 8.20931C25.894 9.03641 27.4111 9.27184 28.6069 8.82391C29.534 8.47598 30.5544 8.28431 31.6227 8.28431C35.9004 8.28431 39.3672 11.3573 39.3672 15.1491C39.3672 18.9408 35.8981 22.0138 31.6227 22.0138C29.9713 22.0138 28.4406 21.5555 27.181 20.7742H27.1833Z" fill="#F4B8CA"/>
<path d="M36.0075 16.8116C36.0176 17.1199 35.96 17.4269 35.838 17.7145C35.716 18.002 35.5321 18.2642 35.2973 18.4856C35.0625 18.7069 34.7815 18.8829 34.4709 19.003C34.1603 19.1232 33.8266 19.1851 33.4894 19.1851C33.1522 19.1851 32.8184 19.1232 32.5078 19.003C32.1973 18.8829 31.9162 18.7069 31.6814 18.4856C31.4466 18.2642 31.2627 18.002 31.1407 17.7145C31.0187 17.4269 30.9611 17.1199 30.9713 16.8116C30.9909 16.2128 31.2649 15.6445 31.735 15.2273C32.2051 14.81 32.8343 14.5767 33.4894 14.5767C34.1444 14.5767 34.7737 14.81 35.2438 15.2273C35.7138 15.6445 35.9878 16.2128 36.0075 16.8116Z" fill="#0C74FF"/>
</svg>

<svg xmlns="http://www.w3.org/2000/svg" width="50" height="50" fill="none" viewBox="0 0 50 50"><path fill="#ffb02e" d="M50 28.072C50 40.983 38.91 50 24.999 50 11.093 50 0 40.812 0 27.902c0-3.84.934-5.486 5.877-6.088 8.86-1.08 13.534-.652 19.124-.652 5.588 0 13.535-.217 19.122.652 4.572.712 5.597 1.479 5.877 6.258"/><path fill="#972021" d="M24.953 40.019c-5.27 0-6.67.595-6.67.595s.655 4.609 6.67 4.609c6.018 0 6.67-4.609 6.67-4.609s-1.399-.595-6.67-.595"/><path fill="#ff6723" d="M45.898 23.979c0 1.083-9.317 1.96-20.804 1.96-11.489 0-20.803-.88-20.803-1.963s9.314-1.962 20.804-1.962c11.487 0 20.8.879 20.8 1.962z"/><path fill="#fee064" d="M20.43 25.939c.118-2.554-.091-3.89-1.025-6.219 0 0 1.77-2.056 5.034-2.056 3.266 0 5.598.52 5.598.52-.564 2.867-.592 4.596-.467 7.755h-9.14"/><path fill="#fff" d="M17.387 38.614c2.749-1.208 4.628-3.67 4.628-6.702 0-4.335-3.843-8.192-8.583-8.192-4.738 0-8.77 3.344-8.77 7.68 0 2.387 1.224 4.575 3.11 6.062a11.3 11.3 0 0 1 3.701-.602c2.37 0 4.492.681 5.914 1.754m15.227 0c-2.75-1.208-4.629-3.67-4.629-6.702 0-4.335 3.843-8.192 8.583-8.192 4.738 0 8.77 3.344 8.77 7.68 0 2.387-1.224 4.575-3.11 6.062a11.3 11.3 0 0 0-3.701-.602c-2.37 0-4.492.681-5.913 1.754"/><path fill="#270c36" d="M13.993 36.348c1.385 0 2.713-.504 3.693-1.4s1.53-2.11 1.53-3.378c0-1.267-.55-2.482-1.53-3.378s-2.308-1.399-3.693-1.399-2.714.503-3.694 1.4c-.98.895-1.53 2.11-1.53 3.377s.55 2.482 1.53 3.378 2.308 1.4 3.694 1.4m22.015 0c-1.386 0-2.714-.504-3.694-1.4s-1.53-2.11-1.53-3.378c0-1.267.55-2.482 1.53-3.378s2.308-1.399 3.694-1.399c1.385 0 2.713.503 3.693 1.4.98.895 1.53 2.11 1.53 3.377s-.55 2.482-1.53 3.378-2.308 1.4-3.693 1.4"/><path fill="#a68ae2" d="M27.425 1.878c-2.617 0-3.638-1.963-7.65-1.875-4.363 0-6.343 2.217-8.488 3.923-.365.292-2.146 1.196-2.984 1.535-3.672 1.494-6.437 3.67-6.437 6.913 0 3.533 3.257 6.398 7.275 6.398.66 0 1.298-.077 1.909-.22 1.621 1.797 4.136 2.841 6.954 2.951 4.384.171 5.785-2.604 8.302-1.452 1.727.792 2.581 1.452 5.317 1.452 3.193 0 4.676-.895 5.596-1.877 1.681-1.791 4.269-.683 5.877-.683 3.503 0 6.344-2.484 6.344-5.546S46.602 7.85 43.098 7.85c-.961 0-2.772.217-3.173-1.194-.653-2.304-3.758-4.95-8.209-4.95-1.738 0-3.3.17-4.291.17"/><path fill="#7b61ff" d="M10.635 2.134c0 .43-.187.843-.52 1.147a1.86 1.86 0 0 1-1.253.475c-.47 0-.922-.17-1.254-.475a1.56 1.56 0 0 1-.52-1.147c0-.43.187-.843.52-1.147A1.86 1.86 0 0 1 8.862.512c.47 0 .921.171 1.254.475s.519.717.519 1.147"/><path fill="#f24630" d="M8.396 17.066c0 .724-.315 1.418-.874 1.93-.56.512-1.32.8-2.111.8s-1.551-.288-2.11-.8a2.62 2.62 0 0 1-.875-1.93c0-.724.314-1.418.874-1.93s1.318-.8 2.11-.8 1.55.288 2.11.8.876 1.206.876 1.93"/><path fill="#7cee1d" d="M47.76 7.082c.012.354-.055.706-.195 1.035-.14.33-.352.63-.622.884s-.592.455-.948.593a3.13 3.13 0 0 1-2.251 0A2.9 2.9 0 0 1 42.795 9a2.6 2.6 0 0 1-.621-.884 2.44 2.44 0 0 1-.196-1.035c0-.702.304-1.375.847-1.87a3.04 3.04 0 0 1 2.045-.776c.768 0 1.503.28 2.046.775.542.496.845 1.17.845 1.871"/><path fill="#fff" d="M19.82 40.291c1.024-.141 2.648-.272 5.133-.272 2.278 0 3.834.11 4.866.237-.29 1-2.42 1.383-5.005 1.383-2.555 0-4.67-.375-4.995-1.348"/><path fill="#f24630" d="M25.001 48.123c3.75 0 4.348-3.496 4.465-4.371.088-.708-.312-1.065-.752-1.306-.435-.242-1.75-.467-3.713-.467s-3.268.225-3.713.467c-.446.241-.85.6-.751 1.306.116.875.715 4.37 4.464 4.37"/><path fill="#f4b8ca" d="M27.183 20.774c-1.07-.664-2.603-.725-3.692-.09a9.95 9.95 0 0 1-5.02 1.33c-5.05 0-9.143-3.63-9.143-8.104 0-4.478 4.093-8.105 9.143-8.105 2.542 0 4.842.917 6.498 2.404.925.827 2.442 1.063 3.638.615a8.6 8.6 0 0 1 3.016-.54c4.277 0 7.744 3.073 7.744 6.865s-3.469 6.865-7.744 6.865a8.4 8.4 0 0 1-4.442-1.24z"/><path fill="#0c74ff" d="M36.008 16.812a2.1 2.1 0 0 1-.17.902c-.122.288-.306.55-.54.772a2.5 2.5 0 0 1-.827.517 2.72 2.72 0 0 1-1.963 0 2.5 2.5 0 0 1-.827-.517 2.3 2.3 0 0 1-.54-.771 2.1 2.1 0 0 1-.17-.903c.02-.6.294-1.168.764-1.585s1.1-.65 1.754-.65c.655 0 1.285.233 1.755.65s.744.986.764 1.585"/></svg>
